rospo-icon-theme-classic-common/32x32/apps/cryptomator.svg

<svg height="32" viewBox="0 0 32 32" width="32" xmlns="http://www.w3.org/2000/svg"><g transform="translate(0 -1020.3622)"><path d="m6.4999969 1034.363s-1.4999969-.081-1.4999969 1.4366v6.1816c1.3379648 5.3846 4.5665372 6.6899 7.079575 8.2322.89965.5522 2.152088 1.1535 3.420402 1.1487 1.268315.01 2.520753-.5965 3.420403-1.1487 2.513038-1.5423 5.74161-2.8476 7.079574-8.2322v-6.1816c0-1.5177-1.499996-1.4366-1.499996-1.4366h-8.999981z" fill-rule="evenodd" opacity=".2"/><path d="m15.399982 1023.3622c-4.639182 0-8.399982 3.7608-8.399982 8.4v8.4h8.399982 8.399982v-8.4c0-4.6392-3.760801-8.4-8.399982-8.4zm0 3c3.092788 0 5.599987 2.3069 5.599987 5.4v5.6h-5.599987-5.5999885l.2000065-5.6c.110401-3.0911 2.307194-5.4 5.399982-5.4z" opacity=".2"/><path d="m15.399982 1022.3622c-4.639182 0-8.399982 3.7608-8.399982 8.4v8.4h8.399982 8.399982v-8.4c0-4.6392-3.760801-8.4-8.399982-8.4zm0 3c3.092788 0 5.599987 2.3069 5.599987 5.4v5.6h-5.599987-5.5999885l.2000065-5.6c.110401-3.0911 2.307194-5.4 5.399982-5.4z" fill="#e4e4e4"/><path d="m15.400391 2c-4.639182 0-8.400391 3.7611906-8.400391 8.400391v1c0-4.6392004 3.761209-8.400391 8.400391-8.400391 4.639181 0 8.40039 3.7611906 8.40039 8.400391v-1c0-4.6392004-3.761209-8.400391-8.40039-8.400391zm-5.5644535 14-.0351563 1h5.5996098 5.599609v-1h-5.599609z" fill="#fff" opacity=".1" transform="translate(0 1020.3622)"/><g fill-rule="evenodd"><path d="m6.4999969 1033.363s-1.4999969-.081-1.4999969 1.4366v6.1816c1.3379648 5.3846 4.5665372 6.6899 7.079575 8.2322.89965.5522 2.152088 1.1535 3.420402 1.1487 1.268315.01 2.520753-.5965 3.420403-1.1487 2.513038-1.5423 5.74161-2.8476 7.079574-8.2322v-6.1816c0-1.5177-1.499996-1.4366-1.499996-1.4366h-8.999981z" fill="#385455"/><g transform="translate(0 1020.3622)"><path d="m8 21-2.6367188 1.833984c.8220417 2.4047 2.0734186 3.847944 3.4179688 4.902344l3.21875-3.736328-1-1h-2zm15 0-1 2h-2l-1 1 3.21875 3.736328c1.34455-1.0544 2.595927-2.497744 3.417969-4.902344zm-9.5 4-2.445312 4.240234c.343949.2012.699795.411528 1.02539.611328.5417.3325 1.217447.667479 1.941406.892579l.978516-4.744141zm4 0-1.5 1 .978516 4.744141c.723959-.225 1.399706-.560079 1.941406-.892579.325595-.1999.681442-.410028 1.02539-.611328z" opacity=".2"/><path d="m8 20-2.6367188 1.833984c.8220417 2.404608 2.0734186 3.847952 3.4179688 4.902344l3.21875-3.736328-1-1h-2z" fill="#a2db44"/><path d="m13.5 24-2.445312 4.240234c.343949.201255.699795.411505 1.02539.611328.5417.332493 1.217447.667514 1.941406.892579l.978516-4.744141z" fill="#a2db44"/></g><path d="m7 1036.3621v3h4v-2z" opacity=".2"/><path d="m7 1035.3622v3h4v-2z" fill="#a2db44"/></g><path d="m15.5 15c-1.380712 0-2.5 1.119288-2.5 2.5.00073.989516.585024 1.885484 1.490234 2.285156l-1.490234 2.214844 2.5 1 2.5-1-1.490234-2.214844c.90521-.399672 1.489504-1.29564 1.490234-2.285156 0-1.380712-1.119288-2.5-2.5-2.5z" opacity=".3" transform="translate(0 1020.3622)"/><g fill-rule="evenodd"><path d="m22.999954 1040.3622 2.636719 1.834c-.822042 2.4046-2.073419 3.8479-3.417969 4.9023l-3.21875-3.7363 1-1h2z" fill="#a2db44"/><path d="m17.499954 1044.3622 2.445312 4.2402c-.343949.2013-.699795.4115-1.02539.6114-.5417.3325-1.217447.6675-1.941406.8925l-.978516-4.7441z" fill="#a2db44"/><path d="m23.999954 1036.3621v3h-4v-2z" opacity=".2"/><path d="m23.999954 1035.3622v3h-4v-2z" fill="#a2db44"/><path d="m6.5 13s-1.5-.0801-1.5 1.4375v1c0-1.5176 1.5-1.4375 1.5-1.4375h9 9s1.5-.0802 1.5 1.4375v-1c0-1.5177-1.5-1.4375-1.5-1.4375h-9z" fill="#fff" opacity=".1" transform="translate(0 1020.3622)"/></g></g></svg>

<svg xmlns="http://www.w3.org/2000/svg" width="32" height="32" version="1.1" viewBox="0 0 32 32">
 <g transform="translate(0,-1020.3622)">
  <path style="opacity:0.2;fill-rule:evenodd" d="m 6.4999969,1034.363 c 0,0 -1.4999969,-0.081 -1.4999969,1.4366 l 0,6.1816 c 1.3379648,5.3846 4.5665372,6.6899 7.079575,8.2322 0.89965,0.5522 2.152088,1.1535 3.420402,1.1487 1.268315,0.01 2.520753,-0.5965 3.420403,-1.1487 2.513038,-1.5423 5.74161,-2.8476 7.079574,-8.2322 l 0,-6.1816 c 0,-1.5177 -1.499996,-1.4366 -1.499996,-1.4366 l -8.999981,0 z"/>
  <path style="opacity:0.2" d="M 15.399982,1023.3622 C 10.7608,1023.3622 7,1027.123 7,1031.7622 l 0,8.4 8.399982,0 8.399982,0 0,-8.4 c 0,-4.6392 -3.760801,-8.4 -8.399982,-8.4 z m 0,3 c 3.092788,0 5.599987,2.3069 5.599987,5.4 l 0,5.6 -5.599987,0 -5.5999885,0 0.2000065,-5.6 c 0.110401,-3.0911 2.307194,-5.4 5.399982,-5.4 z"/>
  <path style="fill:#cccccc" d="M 15.399982,1022.3622 C 10.7608,1022.3622 7,1026.123 7,1030.7622 l 0,8.4 8.399982,0 8.399982,0 0,-8.4 c 0,-4.6392 -3.760801,-8.4 -8.399982,-8.4 z m 0,3 c 3.092788,0 5.599987,2.3069 5.599987,5.4 l 0,5.6 -5.599987,0 -5.5999885,0 0.2000065,-5.6 c 0.110401,-3.0911 2.307194,-5.4 5.399982,-5.4 z"/>
  <path style="opacity:0.1;fill:#ffffff" d="M 15.400391 2 C 10.761209 2 7 5.7611906 7 10.400391 L 7 11.400391 C 7 6.7611906 10.761209 3 15.400391 3 C 20.039572 3 23.800781 6.7611906 23.800781 11.400391 L 23.800781 10.400391 C 23.800781 5.7611906 20.039572 2 15.400391 2 z M 9.8359375 16 L 9.8007812 17 L 15.400391 17 L 21 17 L 21 16 L 15.400391 16 L 9.8359375 16 z" transform="translate(0,1020.3622)"/>
  <path style="fill:#385455;fill-rule:evenodd" d="m 6.4999969,1033.363 c 0,0 -1.4999969,-0.081 -1.4999969,1.4366 l 0,6.1816 c 1.3379648,5.3846 4.5665372,6.6899 7.079575,8.2322 0.89965,0.5522 2.152088,1.1535 3.420402,1.1487 1.268315,0.01 2.520753,-0.5965 3.420403,-1.1487 2.513038,-1.5423 5.74161,-2.8476 7.079574,-8.2322 l 0,-6.1816 c 0,-1.5177 -1.499996,-1.4366 -1.499996,-1.4366 l -8.999981,0 z"/>
  <path style="opacity:0.2;fill-rule:evenodd" d="M 8 21 L 5.3632812 22.833984 C 6.1853229 25.238684 7.4366998 26.681928 8.78125 27.736328 L 12 24 L 11 23 L 9 23 L 8 21 z M 23 21 L 22 23 L 20 23 L 19 24 L 22.21875 27.736328 C 23.5633 26.681928 24.814677 25.238584 25.636719 22.833984 L 23 21 z M 13.5 25 L 11.054688 29.240234 C 11.398637 29.441434 11.754483 29.651762 12.080078 29.851562 C 12.621778 30.184062 13.297525 30.519041 14.021484 30.744141 L 15 26 L 13.5 25 z M 17.5 25 L 16 26 L 16.978516 30.744141 C 17.702475 30.519141 18.378222 30.184062 18.919922 29.851562 C 19.245517 29.651662 19.601364 29.441534 19.945312 29.240234 L 17.5 25 z" transform="translate(0,1020.3622)"/>
  <path style="fill:#a2db44;fill-rule:evenodd" d="M 8 20 L 5.3632812 21.833984 C 6.1853229 24.238592 7.4366998 25.681936 8.78125 26.736328 L 12 23 L 11 22 L 9 22 L 8 20 z" transform="translate(0,1020.3622)"/>
  <path style="fill:#a2db44;fill-rule:evenodd" d="M 13.5 24 L 11.054688 28.240234 C 11.398637 28.441489 11.754483 28.651739 12.080078 28.851562 C 12.621778 29.184055 13.297525 29.519076 14.021484 29.744141 L 15 25 L 13.5 24 z" transform="translate(0,1020.3622)"/>
  <path style="opacity:0.2;fill-rule:evenodd" d="m 7,1036.3621 0,3 4,0 0,-2 z"/>
  <path style="fill:#a2db44;fill-rule:evenodd" d="m 7,1035.3622 0,3 4,0 0,-2 z"/>
  <path style="opacity:0.3" d="m 15.5,15 c -1.380712,0 -2.5,1.119288 -2.5,2.5 7.3e-4,0.989516 0.585024,1.885484 1.490234,2.285156 L 13,22 15.5,23 18,22 16.509766,19.785156 C 17.414976,19.385484 17.99927,18.489516 18,17.5 18,16.119288 16.880712,15 15.5,15 Z" transform="translate(0,1020.3622)"/>
  <path style="fill:#a2db44;fill-rule:evenodd" d="m 22.999954,1040.3622 2.636719,1.834 c -0.822042,2.4046 -2.073419,3.8479 -3.417969,4.9023 l -3.21875,-3.7363 1,-1 2,0 1,-2 z"/>
  <path style="fill:#a2db44;fill-rule:evenodd" d="m 17.499954,1044.3622 2.445312,4.2402 c -0.343949,0.2013 -0.699795,0.4115 -1.02539,0.6114 -0.5417,0.3325 -1.217447,0.6675 -1.941406,0.8925 l -0.978516,-4.7441 1.5,-1 z"/>
  <path style="opacity:0.2;fill-rule:evenodd" d="m 23.999954,1036.3621 0,3 -4,0 0,-2 z"/>
  <path style="fill:#a2db44;fill-rule:evenodd" d="m 23.999954,1035.3622 0,3 -4,0 0,-2 z"/>
  <path style="fill:#ffffff;fill-rule:evenodd;opacity:0.1" d="M 6.5 13 C 6.5 13 5 12.9199 5 14.4375 L 5 15.4375 C 5 13.9199 6.5 14 6.5 14 L 15.5 14 L 24.5 14 C 24.5 14 26 13.9198 26 15.4375 L 26 14.4375 C 26 12.9198 24.5 13 24.5 13 L 15.5 13 L 6.5 13 z" transform="translate(0,1020.3622)"/>
 </g>
</svg>
